static/img/kroki/e0c4da12b27e0afb33657207684a3ac3.svg

<?xml version="1.0" encoding="us-ascii" standalone="no"?><svg xmlns="http://www.w3.org/2000/svg" xmlns:xlink="http://www.w3.org/1999/xlink" contentStyleType="text/css" height="374px" preserveAspectRatio="none" style="width:389px;height:374px;" version="1.1" viewBox="0 0 389 374" width="389px" zoomAndPan="magnify"><defs/><g><!--class database--><g id="elem_database"><rect codeLine="23" fill="#3D176E" height="39.7891" id="database" rx="2.5" ry="2.5" style="stroke:#000D19;stroke-width:0.5;" width="117" x="7" y="167.79"/><ellipse cx="22" cy="187.6845" fill="#ADD1B2" rx="11" ry="11" style="stroke:#181818;stroke-width:1.0;"/><path d="M24.9688,193.3252 Q24.3906,193.622 23.75,193.7627 Q23.1094,193.9189 22.4063,193.9189 Q19.9063,193.9189 18.5781,192.2783 Q17.2656,190.622 17.2656,187.497 Q17.2656,184.372 18.5781,182.7158 Q19.9063,181.0595 22.4063,181.0595 Q23.1094,181.0595 23.75,181.2158 Q24.4063,181.372 24.9688,181.6689 L24.9688,184.3877 Q24.3438,183.8095 23.75,183.5439 Q23.1563,183.2627 22.5313,183.2627 Q21.1875,183.2627 20.5,184.3408 Q19.8125,185.4033 19.8125,187.497 Q19.8125,189.5908 20.5,190.6689 Q21.1875,191.7314 22.5313,191.7314 Q23.1563,191.7314 23.75,191.4658 Q24.3438,191.1845 24.9688,190.6064 L24.9688,193.3252 Z " fill="#000000"/><text fill="#D9B8FF" font-family="Helvetica" font-size="17" lengthAdjust="spacing" textLength="75" x="41" y="193.5698">database</text></g><!--class digitalocean_database--><g id="elem_digitalocean_database"><rect codeLine="26" fill="#3D176E" height="39.7891" id="digitalocean_database" rx="2.5" ry="2.5" style="stroke:#000D19;stroke-width:0.5;" width="227" x="54" y="328.58"/><ellipse cx="69" cy="348.4745" fill="#ADD1B2" rx="11" ry="11" style="stroke:#181818;stroke-width:1.0;"/><path d="M71.9688,354.1152 Q71.3906,354.412 70.75,354.5527 Q70.1094,354.7089 69.4063,354.7089 Q66.9063,354.7089 65.5781,353.0683 Q64.2656,351.412 64.2656,348.287 Q64.2656,345.162 65.5781,343.5058 Q66.9063,341.8495 69.4063,341.8495 Q70.1094,341.8495 70.75,342.0058 Q71.4063,342.162 71.9688,342.4589 L71.9688,345.1777 Q71.3438,344.5995 70.75,344.3339 Q70.1563,344.0527 69.5313,344.0527 Q68.1875,344.0527 67.5,345.1308 Q66.8125,346.1933 66.8125,348.287 Q66.8125,350.3808 67.5,351.4589 Q68.1875,352.5214 69.5313,352.5214 Q70.1563,352.5214 70.75,352.2558 Q71.3438,351.9745 71.9688,351.3964 L71.9688,354.1152 Z " fill="#000000"/><text fill="#D9B8FF" font-family="Helvetica" font-size="17" lengthAdjust="spacing" textLength="185" x="88" y="354.3598">digitalocean_database</text></g><!--class digitalocean_resource--><g id="elem_digitalocean_resource"><rect codeLine="29" fill="#3D176E" height="39.7891" id="digitalocean_resource" rx="2.5" ry="2.5" style="stroke:#000D19;stroke-width:0.5;" width="223" x="159" y="167.79"/><ellipse cx="174" cy="187.6845" fill="#ADD1B2" rx="11" ry="11" style="stroke:#181818;stroke-width:1.0;"/><path d="M176.9688,193.3252 Q176.3906,193.622 175.75,193.7627 Q175.1094,193.9189 174.4063,193.9189 Q171.9063,193.9189 170.5781,192.2783 Q169.2656,190.622 169.2656,187.497 Q169.2656,184.372 170.5781,182.7158 Q171.9063,181.0595 174.4063,181.0595 Q175.1094,181.0595 175.75,181.2158 Q176.4063,181.372 176.9688,181.6689 L176.9688,184.3877 Q176.3438,183.8095 175.75,183.5439 Q175.1563,183.2627 174.5313,183.2627 Q173.1875,183.2627 172.5,184.3408 Q171.8125,185.4033 171.8125,187.497 Q171.8125,189.5908 172.5,190.6689 Q173.1875,191.7314 174.5313,191.7314 Q175.1563,191.7314 175.75,191.4658 Q176.3438,191.1845 176.9688,190.6064 L176.9688,193.3252 Z " fill="#000000"/><text fill="#D9B8FF" font-family="Helvetica" font-size="17" lengthAdjust="spacing" textLength="181" x="193" y="193.5698">digitalocean_resource</text></g><!--class resource--><g id="elem_resource"><rect codeLine="32" fill="#3D176E" height="39.7891" id="resource" rx="2.5" ry="2.5" style="stroke:#000D19;stroke-width:0.5;" width="113" x="111" y="7"/><ellipse cx="126" cy="26.8945" fill="#ADD1B2" rx="11" ry="11" style="stroke:#181818;stroke-width:1.0;"/><path d="M128.9688,32.5352 Q128.3906,32.832 127.75,32.9727 Q127.1094,33.1289 126.4063,33.1289 Q123.9063,33.1289 122.5781,31.4883 Q121.2656,29.832 121.2656,26.707 Q121.2656,23.582 122.5781,21.9258 Q123.9063,20.2695 126.4063,20.2695 Q127.1094,20.2695 127.75,20.4258 Q128.4063,20.582 128.9688,20.8789 L128.9688,23.5977 Q128.3438,23.0195 127.75,22.7539 Q127.1563,22.4727 126.5313,22.4727 Q125.1875,22.4727 124.5,23.5508 Q123.8125,24.6133 123.8125,26.707 Q123.8125,28.8008 124.5,29.8789 Q125.1875,30.9414 126.5313,30.9414 Q127.1563,30.9414 127.75,30.6758 Q128.3438,30.3945 128.9688,29.8164 L128.9688,32.5352 Z " fill="#000000"/><text fill="#D9B8FF" font-family="Helvetica" font-size="17" lengthAdjust="spacing" textLength="71" x="145" y="32.7798">resource</text></g><!--reverse link resource to database--><g id="link_resource_database"><path codeLine="35" d="M145.4699,62.1935 C125.8599,92.7135 97.48,136.9 77.85,167.46 " fill="none" id="resource-backto-database" style="stroke:#FFAF37;stroke-width:2.0;"/><polygon fill="none" points="155.2,47.05,140.4221,58.9501,150.5177,65.4368,155.2,47.05" style="stroke:#FFAF37;stroke-width:2.0;"/></g><!--reverse link database to digitalocean_database--><g id="link_database_digitalocean_database"><path codeLine="36" d="M87.5301,222.9835 C107.1401,253.5035 135.52,297.69 155.15,328.25 " fill="none" id="database-backto-digitalocean_database" style="stroke:#FFAF37;stroke-width:2.0;"/><polygon fill="none" points="77.8,207.84,82.4823,226.2268,92.5779,219.7401,77.8,207.84" style="stroke:#FFAF37;stroke-width:2.0;"/></g><!--reverse link digitalocean_resource to digitalocean_database--><g id="link_digitalocean_resource_digitalocean_database"><path codeLine="37" d="M248.2834,222.9406 C228.4834,253.4606 199.79,297.69 179.97,328.25 " fill="none" id="digitalocean_resource-backto-digitalocean_database" style="stroke:#FFAF37;stroke-width:2.0;"/><polygon fill="none" points="258.08,207.84,243.2499,219.675,253.317,226.2061,258.08,207.84" style="stroke:#FFAF37;stroke-width:2.0;"/></g><!--reverse link resource to digitalocean_resource--><g id="link_resource_digitalocean_resource"><path codeLine="38" d="M189.7166,62.1506 C209.5166,92.6706 238.21,136.9 258.03,167.46 " fill="none" id="resource-backto-digitalocean_resource" style="stroke:#FFAF37;stroke-width:2.0;"/><polygon fill="none" points="179.92,47.05,184.683,65.4161,194.7501,58.885,179.92,47.05" style="stroke:#FFAF37;stroke-width:2.0;"/></g><!--SRC=[XP3DRi8m48JlVWfBd2D1KGj8lT18LNj1LUczsiJhn4fYe_LIH7_UlKs1o2GX73tpUMTsSwDGOhNXlQomIf2yy8Mn6o2ev9B8xM9NEf8ZhK5FPstpqLc-2goWGlc4vGUoIQ5DlEKcBInwBsy2wm7I8YEtjUemdWci_xFGSa359NY_P2QJR1c3CcgHpBLka-sXewcQpEwmWpbII4TaF1whoQADN8qQtBiXrkOJvIGysienTcfs8lwfmPOr4PJiB7hoBtPy0QMCpUHjeBqUEf55EjFNEIYtgsaDfGzZF2EXu_q6uyvMk9WhFUk5do_18grF9nKm9E1HVWdnSz9CPXXAboBOzwi0eNTRIi-0SwrvtNz7KTH4YcRqKU-B5VrPGp-6e9CdVW40]--></g></svg>

<svg xmlns="http://www.w3.org/2000/svg" width="389" height="374" viewBox="0 0 389 374"><rect width="117" height="39.789" x="7" y="167.79" fill="#3D176E" rx="2.5" ry="2.5" style="stroke:#000d19;stroke-width:.5"/><circle cx="22" cy="187.685" r="11" fill="#ADD1B2" style="stroke:#181818;stroke-width:1"/><path d="M24.969 193.325q-.578.297-1.219.438-.64.156-1.344.156-2.5 0-3.828-1.64-1.312-1.657-1.312-4.782t1.312-4.781q1.328-1.656 3.828-1.656.703 0 1.344.156.656.156 1.219.453v2.719q-.625-.578-1.219-.844-.594-.281-1.219-.281-1.343 0-2.031 1.078-.687 1.062-.687 3.156t.687 3.172q.688 1.062 2.031 1.062.625 0 1.219-.265.594-.281 1.219-.86z"/><text x="41" y="193.57" fill="#D9B8FF" font-family="Helvetica" font-size="17" textLength="75">database</text><rect width="227" height="39.789" x="54" y="328.58" fill="#3D176E" rx="2.5" ry="2.5" style="stroke:#000d19;stroke-width:.5"/><circle cx="69" cy="348.474" r="11" fill="#ADD1B2" style="stroke:#181818;stroke-width:1"/><path d="M71.969 354.115q-.578.297-1.219.438-.64.156-1.344.156-2.5 0-3.828-1.64-1.312-1.657-1.312-4.782t1.312-4.781q1.328-1.656 3.828-1.656.703 0 1.344.156.656.156 1.219.453v2.719q-.625-.579-1.219-.844-.594-.281-1.219-.281-1.344 0-2.031 1.078-.687 1.062-.687 3.156t.687 3.172q.688 1.062 2.031 1.062.625 0 1.219-.265.594-.281 1.219-.86z"/><text x="88" y="354.36" fill="#D9B8FF" font-family="Helvetica" font-size="17" textLength="185">digitalocean_database</text><rect width="223" height="39.789" x="159" y="167.79" fill="#3D176E" rx="2.5" ry="2.5" style="stroke:#000d19;stroke-width:.5"/><circle cx="174" cy="187.685" r="11" fill="#ADD1B2" style="stroke:#181818;stroke-width:1"/><path d="M176.969 193.325q-.578.297-1.219.438-.64.156-1.344.156-2.5 0-3.828-1.64-1.312-1.657-1.312-4.782t1.312-4.781q1.328-1.656 3.828-1.656.703 0 1.344.156.656.156 1.219.453v2.719q-.625-.578-1.219-.844-.594-.281-1.219-.281-1.344 0-2.031 1.078-.687 1.062-.687 3.156t.687 3.172q.688 1.062 2.031 1.062.625 0 1.219-.265.594-.281 1.219-.86z"/><text x="193" y="193.57" fill="#D9B8FF" font-family="Helvetica" font-size="17" textLength="181">digitalocean_resource</text><rect width="113" height="39.789" x="111" y="7" fill="#3D176E" rx="2.5" ry="2.5" style="stroke:#000d19;stroke-width:.5"/><circle cx="126" cy="26.895" r="11" fill="#ADD1B2" style="stroke:#181818;stroke-width:1"/><path d="M128.969 32.535q-.578.297-1.219.438-.64.156-1.344.156-2.5 0-3.828-1.64-1.312-1.657-1.312-4.782t1.312-4.781q1.328-1.656 3.828-1.656.703 0 1.344.156.656.156 1.219.453v2.719q-.625-.578-1.219-.844-.594-.281-1.219-.281-1.344 0-2.031 1.078-.687 1.062-.687 3.156t.687 3.172q.688 1.062 2.031 1.062.625 0 1.219-.265.594-.281 1.219-.86z"/><text x="145" y="32.78" fill="#D9B8FF" font-family="Helvetica" font-size="17" textLength="71">resource</text><path fill="none" d="M145.47 62.194C125.86 92.714 97.48 136.9 77.85 167.46M155.2 47.05l-14.778 11.9 10.096 6.487zM87.53 222.984c19.61 30.52 47.99 74.706 67.62 105.266M77.8 207.84l4.682 18.387 10.096-6.487z" style="stroke:#ffaf37;stroke-width:2"/><g fill="none"><path d="M248.283 222.94c-19.8 30.52-48.493 74.75-68.313 105.31" style="stroke:#ffaf37;stroke-width:2"/><path d="m258.08 207.84-14.83 11.835 10.067 6.531z" style="stroke:#ffaf37;stroke-width:2"/></g><g fill="none"><path d="M189.717 62.15c19.8 30.52 48.493 74.75 68.313 105.31" style="stroke:#ffaf37;stroke-width:2"/><path d="m179.92 47.05 4.763 18.366 10.067-6.531z" style="stroke:#ffaf37;stroke-width:2"/></g></svg>
